public/svg/black/sc.svg

<svg xmlns="http://www.w3.org/2000/svg" width="32" height="32" viewBox="0 0 32 32"><path fill-rule="evenodd" d="M16,32 C7.163444,32 0,24.836556 0,16 C0,7.163444 7.163444,0 16,0 C24.836556,0 32,7.163444 32,16 C32,24.836556 24.836556,32 16,32 Z M16.0000108,7.5 C11.3054648,7.5 7.5,11.3054751 7.5,16.0000718 C7.5,20.6944531 11.3054648,24.5 16.0000108,24.5 L24.5,24.5 L24.5,16.0000718 C24.5,11.3054751 20.6944491,7.5 16.0000108,7.5 Z M21.1000905,21.1001005 L16.0771127,21.1001005 C13.2577258,21.1001005 10.9140319,18.8449882 10.9000459,16.025703 C10.88606,13.193279 13.193339,10.8861147 16.0256707,10.9000431 C18.84495,10.9139715 21.1000905,13.2577519 21.1000905,16.0771089 L21.1000905,21.1001005 Z"/></svg>

<svg xmlns="http://www.w3.org/2000/svg" width="32" height="32" viewBox="0 0 32 32"><path fill-rule="evenodd" d="M16 32C7.163 32 0 24.837 0 16S7.163 0 16 0s16 7.163 16 16-7.163 16-16 16zm0-24.5a8.5 8.5 0 100 17h8.5V16A8.5 8.5 0 0016 7.5zm5.1 13.6h-5.023c-2.82 0-5.163-2.255-5.177-5.074a5.106 5.106 0 015.126-5.126c2.819.014 5.074 2.358 5.074 5.177V21.1z"/></svg>
